;FLAVOR:Marlin
;TIME:9895
;Filament used: 7.53208m
;Layer height: 0.2
;MINX:49.001
;MINY:40.063
;MINZ:0.2
;MAXX:211
;MAXY:219.919
;MAXZ:70
;Generated with Cura_SteamEngine 5.2.1
M140 S60
M105
M190 S60
M104 S200
M105
M109 S200
M82 ;absolute extrusion mode

G28 ;Home

G92 E0 ;Reset Extruder
G1 Z2.0 F3000 ;Move Z Axis up
G1 X10.1 Y20 Z0.28 F5000.0 ;Move to start position
G1 X10.1 Y200.0 Z0.28 F1500.0 E15 ;Draw the first line
G1 X10.4 Y200.0 Z0.28 F5000.0 ;Move to side a little
G1 X10.4 Y20 Z0.28 F1500.0 E30 ;Draw the second line
G92 E0 ;Reset Extruder
G1 Z2.0 F3000 ;Move Z Axis up

G92 E0
G92 E0
G1 F1500 E-6.5
;LAYER_COUNT:350
;LAYER:0
M107
G0 F6000 X51.578 Y44.008 Z0.2
;TYPE:SKIRT
G1 F1500 E0
G1 F1200 X52.21 Y43.315 E0.03119
G1 X52.899 Y42.679 E0.06238
G1 X53.64 Y42.104 E0.09358
G1 X54.427 Y41.594 E0.12477
G1 X55.255 Y41.153 E0.15597
G1 X56.117 Y40.784 E0.18716
G1 X57.008 Y40.49 E0.21836
G1 X57.92 Y40.272 E0.24955
G1 X58.847 Y40.134 E0.28072
G1 X59.701 Y40.076 E0.30919
G1 X60.33 Y40.063 E0.33012
G1 X74.293 Y40.063 E0.79453
G1 X75.153 Y40.074 E0.82314
G1 X76.09 Y40.127 E0.85435
G1 X77.018 Y40.26 E0.88553
G1 X77.932 Y40.472 E0.91674
G1 X78.824 Y40.76 E0.94791
G1 X79.689 Y41.124 E0.97913
G1 X80.905 Y41.795 E1.02532
G1 X83.308 Y43.325 E1.12007
G1 X85.512 Y44.64 E1.20543
G1 X87.67 Y45.846 E1.28765
G1 X89.925 Y47.023 E1.37226
G1 X92.192 Y48.126 E1.45611
G1 X94.502 Y49.17 E1.54042
G1 X96.79 Y50.128 E1.62292
G1 X99.153 Y51.039 E1.70716
G1 X101.527 Y51.877 E1.79089
G1 X103.93 Y52.65 E1.87485
G1 X106.334 Y53.35 E1.95813
G1 X108.771 Y53.986 E2.0419
G1 X111.228 Y54.552 E2.12576
G1 X113.717 Y55.051 E2.21019
G1 X116.185 Y55.475 E2.29348
G1 X118.663 Y55.829 E2.37673
G1 X121.156 Y56.113 E2.46019
G1 X123.68 Y56.329 E2.54444
G1 X126.199 Y56.473 E2.62836
G1 X128.684 Y56.544 E2.71105
G1 X131.209 Y56.544 E2.79503
G1 X133.744 Y56.473 E2.87937
G1 X136.244 Y56.333 E2.96266
G1 X138.766 Y56.119 E3.04684
G1 X141.268 Y55.835 E3.13059
G1 X143.765 Y55.481 E3.21447
G1 X146.222 Y55.061 E3.29738
G1 X148.664 Y54.574 E3.3802
G1 X151.178 Y53.995 E3.466
G1 X153.563 Y53.375 E3.54796
G1 X156.013 Y52.664 E3.63281
G1 X158.416 Y51.891 E3.71677
G1 X160.79 Y51.055 E3.80048
G1 X163.112 Y50.163 E3.88322
G1 X165.426 Y49.196 E3.96663
G1 X167.765 Y48.139 E4.052
G1 X169.999 Y47.055 E4.13459
G1 X172.246 Y45.883 E4.21888
G1 X174.431 Y44.664 E4.3021
G1 X176.61 Y43.366 E4.38646
G1 X179.128 Y41.775 E4.48552
G1 X179.941 Y41.308 E4.51671
G1 X180.791 Y40.913 E4.54788
G1 X181.672 Y40.591 E4.57908
G1 X182.577 Y40.345 E4.61027
G1 X183.5 Y40.177 E4.64147
G1 X184.633 Y40.08 E4.6793
G1 X185.33 Y40.063 E4.70248
G1 X199.435 Y40.064 E5.17162
G1 X200.133 Y40.073 E5.19484
G1 X201.069 Y40.125 E5.22602
G1 X201.998 Y40.257 E5.25722
G1 X202.912 Y40.467 E5.28842
G1 X203.805 Y40.754 E5.31961
G1 X204.67 Y41.117 E5.35082
G1 X205.501 Y41.551 E5.382
G1 X206.292 Y42.055 E5.41319
G1 X207.037 Y42.625 E5.44439
G1 X207.731 Y43.256 E5.47559
G1 X208.368 Y43.943 E5.50675
G1 X208.945 Y44.683 E5.53796
G1 X209.457 Y45.469 E5.56916
G1 X209.9 Y46.296 E5.60036
G1 X210.271 Y47.157 E5.63155
G1 X210.567 Y48.047 E5.66274
G1 X210.786 Y48.959 E5.69394
G1 X210.927 Y49.886 E5.72512
G1 X210.987 Y50.764 E5.75439
G1 X211 Y51.393 E5.77532
G1 X210.999 Y200.462 E10.73337
G1 X210.99 Y201.189 E10.75756
G1 X210.939 Y202.126 E10.78877
G1 X210.807 Y203.054 E10.81994
G1 X210.598 Y203.968 E10.85113
G1 X210.311 Y204.861 E10.88233
G1 X209.949 Y205.727 E10.91354
G1 X209.515 Y206.558 E10.94473
G1 X209.011 Y207.349 E10.97592
G1 X208.442 Y208.094 E11.0071
G1 X207.811 Y208.789 E11.03832
G1 X207.124 Y209.427 E11.0695
G1 X206.385 Y210.004 E11.10069
G1 X205.599 Y210.516 E11.13189
G1 X204.773 Y210.959 E11.16306
G1 X203.911 Y211.331 E11.19429
G1 X203.022 Y211.627 E11.22545
G1 X202.11 Y211.847 E11.25666
G1 X201.183 Y211.988 E11.28784
G1 X200.299 Y212.049 E11.31732
G1 X199.671 Y212.062 E11.33821
G1 X185.064 Y212.063 E11.82404
G1 X184.943 Y212.07 E11.82807
G1 X184.137 Y212.066 E11.85488
G1 X181.643 Y212.124 E11.93785
G1 X179.101 Y212.254 E12.02251
G1 X176.602 Y212.455 E12.10589
G1 X174.092 Y212.727 E12.18987
G1 X171.612 Y213.067 E12.27312
G1 X169.116 Y213.482 E12.35728
G1 X166.671 Y213.959 E12.44013
G1 X164.165 Y214.522 E12.52556
G1 X161.804 Y215.124 E12.6066
G1 X159.342 Y215.826 E12.69175
G1 X156.415 Y216.759 E12.79393
G1 X155.51 Y217.006 E12.82513
G1 X154.731 Y217.153 E12.8515
G1 X153.414 Y217.352 E12.8958
G1 X135.17 Y219.747 E13.5078
G1 X134.291 Y219.85 E13.53724
G1 X133.356 Y219.919 E13.56842
G1 X132.418 Y219.908 E13.59962
G1 X131.78 Y219.854 E13.62092
G1 X130.712 Y219.731 E13.65667
G1 X118.203 Y218.089 E14.07629
G1 X115.563 Y217.781 E14.1647
G1 X113.069 Y217.56 E14.24797
G1 X110.589 Y217.412 E14.3306
G1 X108.031 Y217.331 E14.41573
G1 X105.542 Y217.324 E14.49851
G1 X102.983 Y217.388 E14.58365
G1 X100.524 Y217.519 E14.66555
G1 X98.004 Y217.725 E14.74965
G1 X94.826 Y218.086 E14.85603
G1 X82.116 Y219.754 E15.28239
G1 X81.297 Y219.85 E15.30982
G1 X80.361 Y219.919 E15.34103
G1 X79.424 Y219.908 E15.3722
G1 X78.793 Y219.855 E15.39326
G1 X77.905 Y219.755 E15.42298
G1 X59.093 Y217.286 E16.05404
G1 X58.436 Y217.191 E16.07612
G1 X57.514 Y217.017 E16.10732
G1 X56.611 Y216.766 E16.1385
G1 X55.732 Y216.438 E16.1697
G1 X54.884 Y216.037 E16.2009
G1 X54.074 Y215.565 E16.23208
G1 X53.306 Y215.025 E16.26331
G1 X52.588 Y214.423 E16.29447
G1 X51.923 Y213.761 E16.32568
G1 X51.317 Y213.045 E16.35688
G1 X50.775 Y212.28 E16.38806
G1 X50.299 Y211.472 E16.41925
G1 X49.894 Y210.626 E16.45045
G1 X49.563 Y209.748 E16.48166
G1 X49.308 Y208.846 E16.51283
G1 X49.13 Y207.925 E16.54403
G1 X49.032 Y206.992 E16.57524
G1 X49.011 Y206.478 E16.59235
G1 X49.001 Y205.846 E16.61337
G1 X49.014 Y204.429 E16.6605
G1 X49.014 Y201.706 E16.75107
G1 X49.002 Y201.054 E16.77276
G1 X49.001 Y51.572 E21.74455
G1 X49.011 Y50.907 E21.76667
G1 X49.065 Y49.97 E21.79788
G1 X49.199 Y49.042 E21.82907
G1 X49.411 Y48.128 E21.86028
G1 X49.7 Y47.236 E21.89146
G1 X50.065 Y46.372 E21.92266
G1 X50.501 Y45.542 E21.95384
G1 X51.007 Y44.752 E21.98505
G1 X51.578 Y44.008 E22.01624
G0 F6000 X51.972 Y44.162
G1 F1200 X52.602 Y43.49 E22.04688
G1 X53.288 Y42.876 E22.0775
G1 X54.024 Y42.324 E22.1081
G1 X54.806 Y41.837 E22.13874
G1 X55.627 Y41.421 E22.16935
G1 X56.481 Y41.077 E22.19997
G1 X57.361 Y40.808 E22.23058
G1 X58.262 Y40.617 E22.26121
G1 X59.176 Y40.505 E22.29184
G1 X59.712 Y40.476 E22.30969
G1 X60.33 Y40.463 E22.33025
G1 X74.293 Y40.463 E22.79466
G1 X75.148 Y40.474 E22.8231
G1 X76.067 Y40.527 E22.85372
G1 X76.978 Y40.66 E22.88434
G1 X77.874 Y40.871 E22.91495
G1 X78.748 Y41.159 E22.94556
G1 X79.594 Y41.522 E22.97618
G1 X80.691 Y42.132 E23.01793
G1 X83.134 Y43.688 E23.11426
G1 X85.291 Y44.974 E23.19779
G1 X87.496 Y46.207 E23.28182
G1 X89.743 Y47.38 E23.36612
G1 X92.031 Y48.492 E23.45073
G1 X94.288 Y49.513 E23.53312
G1 X96.67 Y50.51 E23.61901
G1 X99.043 Y51.425 E23.7036
G1 X101.387 Y52.253 E23.78628
G1 X103.791 Y53.026 E23.87027
G1 X106.236 Y53.738 E23.95497
G1 X108.685 Y54.377 E24.03915
G1 X111.132 Y54.94 E24.12267
G1 X113.641 Y55.444 E24.20778
G1 X116.132 Y55.872 E24.29185
G1 X118.597 Y56.224 E24.37467
G1 X121.144 Y56.514 E24.45993
G1 X123.624 Y56.726 E24.54271
G1 X126.164 Y56.871 E24.62733
G1 X128.708 Y56.944 E24.71198
G1 X131.22 Y56.944 E24.79553
G1 X133.777 Y56.873 E24.88061
G1 X136.266 Y56.733 E24.96352
G1 X138.809 Y56.518 E25.04841
G1 X141.297 Y56.235 E25.13169
G1 X143.817 Y55.878 E25.21634
G1 X146.303 Y55.453 E25.30023
G1 X148.76 Y54.962 E25.38356
G1 X151.263 Y54.386 E25.46899
G1 X153.703 Y53.752 E25.55284
G1 X156.099 Y53.056 E25.63582
G1 X158.534 Y52.274 E25.72089
G1 X160.918 Y51.434 E25.80496
G1 X163.273 Y50.529 E25.88887
G1 X165.609 Y49.553 E25.97307
G1 X167.911 Y48.513 E26.05709
G1 X170.165 Y47.419 E26.14042
G1 X172.447 Y46.229 E26.22602
G1 X174.625 Y45.014 E26.30897
G1 X176.816 Y43.708 E26.39381
G1 X179.341 Y42.113 E26.49314
G1 X180.14 Y41.656 E26.52376
G1 X180.976 Y41.269 E26.5544
G1 X181.842 Y40.957 E26.58501
G1 X182.732 Y40.72 E26.61565
G1 X183.638 Y40.562 E26.64623
G1 X184.647 Y40.48 E26.6799
G1 X185.33 Y40.463 E26.70263
G1 X199.43 Y40.464 E27.1716
G1 X200.128 Y40.473 E27.19481
G1 X201.047 Y40.525 E27.22543
G1 X201.958 Y40.656 E27.25604
G1 X202.854 Y40.866 E27.28665
G1 X203.729 Y41.153 E27.31728
G1 X204.576 Y41.515 E27.34791
G1 X205.388 Y41.949 E27.37854
G1 X206.159 Y42.451 E27.40914
G1 X206.884 Y43.019 E27.43977
G1 X207.557 Y43.648 E27.47041
G1 X208.172 Y44.332 E27.501
G1 X208.726 Y45.067 E27.53161
G1 X209.214 Y45.848 E27.56224
G1 X209.633 Y46.668 E27.59287
G1 X209.979 Y47.521 E27.62349
G1 X210.249 Y48.401 E27.6541
G1 X210.442 Y49.302 E27.68475
G1 X210.556 Y50.215 E27.71535
G1 X210.587 Y50.775 E27.73401
G1 X210.6 Y51.393 E27.75457
G1 X210.599 Y200.457 E32.71245
G1 X210.59 Y201.184 E32.73664
G1 X210.539 Y202.103 E32.76725
G1 X210.408 Y203.015 E32.79789
G1 X210.198 Y203.911 E32.8285
G1 X209.912 Y204.786 E32.85912
G1 X209.551 Y205.633 E32.88974
G1 X209.117 Y206.445 E32.92037
G1 X208.615 Y207.217 E32.95099
G1 X208.047 Y207.942 E32.98163
G1 X207.419 Y208.615 E33.01224
G1 X206.735 Y209.231 E33.04286
G1 X206 Y209.785 E33.07347
G1 X205.22 Y210.274 E33.10409
G1 X204.4 Y210.693 E33.13472
G1 X203.547 Y211.039 E33.16534
G1 X202.667 Y211.31 E33.19596
G1 X201.767 Y211.503 E33.22658
G1 X200.853 Y211.618 E33.25721
G1 X200.288 Y211.649 E33.27603
G1 X199.671 Y211.662 E33.29656
G1 X185.101 Y211.663 E33.78116
G1 X184.945 Y211.67 E33.78635
G1 X184.129 Y211.666 E33.8135
G1 X181.613 Y211.725 E33.8972
G1 X179.084 Y211.854 E33.98143
G1 X176.563 Y212.056 E34.06554
G1 X174.062 Y212.328 E34.14922
G1 X171.529 Y212.675 E34.23425
G1 X169.079 Y213.082 E34.31686
G1 X166.544 Y213.577 E34.40276
G1 X164.117 Y214.122 E34.48549
G1 X161.667 Y214.747 E34.56959
G1 X159.246 Y215.436 E34.65331
G1 X156.294 Y216.378 E34.75637
G1 X155.405 Y216.619 E34.78701
G1 X154.671 Y216.758 E34.81186
G1 X153.569 Y216.926 E34.84893
G1 X147.321 Y217.754 E35.05856
G1 X134.966 Y219.369 E35.47298
G1 X134.245 Y219.453 E35.49713
G1 X133.326 Y219.52 E35.52777
G1 X132.406 Y219.506 E35.55838
G1 X131.825 Y219.457 E35.57777
G1 X130.951 Y219.358 E35.60702
G1 X118.166 Y217.681 E36.0359
G1 X115.644 Y217.387 E36.12035
G1 X113.095 Y217.162 E36.20546
G1 X110.591 Y217.012 E36.28889
G1 X108.044 Y216.932 E36.37365
G1 X105.533 Y216.924 E36.45716
G1 X102.987 Y216.987 E36.54187
G1 X100.469 Y217.122 E36.62574
G1 X97.956 Y217.327 E36.7096
G1 X94.792 Y217.687 E36.81551
G1 X81.912 Y219.376 E37.24757
G1 X81.251 Y219.453 E37.2697
G1 X80.332 Y219.52 E37.30035
G1 X79.412 Y219.506 E37.33095
G1 X78.838 Y219.457 E37.35011
G1 X77.756 Y219.334 E37.38633
G1 X59.15 Y216.89 E38.01049
G1 X58.493 Y216.795 E38.03257
G1 X57.588 Y216.624 E38.0632
G1 X56.702 Y216.375 E38.09381
G1 X55.841 Y216.05 E38.12442
G1 X55.011 Y215.651 E38.15505
G1 X54.219 Y215.182 E38.18566
G1 X53.47 Y214.646 E38.2163
G1 X52.771 Y214.047 E38.24691
G1 X52.126 Y213.39 E38.27754
G1 X51.541 Y212.679 E38.30816
G1 X51.02 Y211.92 E38.33878
G1 X50.567 Y211.119 E38.36939
G1 X50.184 Y210.281 E38.40003
G1 X49.876 Y209.414 E38.43063
G1 X49.645 Y208.523 E38.46125
G1 X49.491 Y207.615 E38.49188
G1 X49.411 Y206.472 E38.52999
G1 X49.401 Y205.84 E38.55101
G1 X49.414 Y204.429 E38.59794
G1 X49.414 Y201.697 E38.68881
G1 X49.402 Y201.054 E38.7102
G1 X49.401 Y51.578 E43.68179
G1 X49.411 Y50.913 E43.70391
G1 X49.465 Y49.994 E43.73453
G1 X49.598 Y49.083 E43.76515
G1 X49.81 Y48.187 E43.79578
G1 X50.099 Y47.312 E43.82643
G1 X50.463 Y46.467 E43.85703
G1 X50.898 Y45.656 E43.88764
G1 X51.403 Y44.885 E43.91829
G1 X51.972 Y44.162 E43.94889
G0 F6000 X52.366 Y44.319
G1 F1200 X52.993 Y43.669 E43.97893
G1 X53.675 Y43.077 E44.00897
G1 X54.407 Y42.548 E44.03901
G1 X55.183 Y42.086 E44.06904
G1 X55.997 Y41.695 E44.09908
G1 X56.842 Y41.376 E44.12912
G1 X57.712 Y41.134 E44.15916
G1 X58.6 Y40.97 E44.18919
G1 X59.723 Y40.876 E44.22667
G1 X60.33 Y40.863 E44.24687
G1 X74.293 Y40.863 E44.71128
G1 X75.142 Y40.874 E44.73952
G1 X76.043 Y40.927 E44.76954
G1 X76.937 Y41.059 E44.79959
G1 X77.815 Y41.27 E44.82963
G1 X78.671 Y41.558 E44.85967
G1 X79.498 Y41.92 E44.88969
G1 X80.476 Y42.469 E44.92699
G1 X82.92 Y44.025 E45.02336
G1 X85.097 Y45.324 E45.10768
G1 X87.322 Y46.568 E45.19246
G1 X89.562 Y47.737 E45.2765
G1 X91.841 Y48.845 E45.36078
G1 X94.148 Y49.888 E45.44499
G1 X96.508 Y50.876 E45.53009
G1 X98.903 Y51.799 E45.61546
G1 X101.269 Y52.635 E45.69892
G1 X103.672 Y53.408 E45.78287
G1 X106.129 Y54.123 E45.86798
G1 X108.599 Y54.768 E45.95289
G1 X111.028 Y55.327 E46.03579
G1 X113.567 Y55.837 E46.12193
G1 X116.085 Y56.269 E46.2069
G1 X118.562 Y56.623 E46.29012
G1 X121.066 Y56.908 E46.37394
G1 X123.636 Y57.128 E46.45973
G1 X126.132 Y57.271 E46.54289
G1 X128.696 Y57.344 E46.6282
G1 X131.231 Y57.344 E46.71252
G1 X133.774 Y57.273 E46.79713
G1 X136.289 Y57.132 E46.88091
G1 X138.852 Y56.915 E46.96646
G1 X141.362 Y56.63 E47.05048
G1 X143.875 Y56.274 E47.1349
G1 X146.37 Y55.847 E47.21909
G1 X148.863 Y55.349 E47.30364
G1 X151.349 Y54.777 E47.38849
G1 X153.801 Y54.14 E47.47275
G1 X156.238 Y53.432 E47.55716
G1 X158.674 Y52.649 E47.64226
G1 X161.058 Y51.809 E47.72633
G1 X163.393 Y50.912 E47.80953
G1 X165.749 Y49.928 E47.89445
G1 X168.085 Y48.872 E47.97971
G1 X170.374 Y47.762 E48.06432
G1 X172.621 Y46.59 E48.14861
G1 X174.845 Y45.349 E48.23332
G1 X177.013 Y44.058 E48.31725
G1 X179.555 Y42.451 E48.41727
G1 X180.339 Y42.003 E48.4473
G1 X181.16 Y41.626 E48.47735
G1 X182.01 Y41.323 E48.50737
G1 X182.885 Y41.097 E48.53742
G1 X183.775 Y40.948 E48.56744
G1 X184.66 Y40.88 E48.59696
G1 X185.33 Y40.863 E48.61925
G1 X199.425 Y40.864 E49.08805
G1 X200.123 Y40.873 E49.11127
G1 X201.024 Y40.924 E49.14128
G1 X201.918 Y41.056 E49.17134
G1 X202.796 Y41.265 E49.20136
G1 X203.653 Y41.552 E49.23142
G1 X204.48 Y41.913 E49.26143
G1 X205.273 Y42.346 E49.29148
G1 X206.024 Y42.847 E49.32151
G1 X206.728 Y43.413 E49.35155
G1 X207.379 Y44.039 E49.38159
G1 X207.972 Y44.72 E49.41163
G1 X208.502 Y45.451 E49.44166
G1 X208.966 Y46.226 E49.4717
G1 X209.36 Y47.039 E49.50175
G1 X209.68 Y47.883 E49.53177
G1 X209.924 Y48.753 E49.56182
G1 X210.09 Y49.641 E49.59187
G1 X210.187 Y50.786 E49.63009
G1 X210.2 Y51.393 E49.65028
G1 X210.199 Y200.452 E54.60801
G1 X210.19 Y201.179 E54.63219
G1 X210.139 Y202.081 E54.66224
G1 X210.008 Y202.975 E54.69229
G1 X209.799 Y203.853 E54.72231
G1 X209.513 Y204.71 E54.75236
G1 X209.152 Y205.538 E54.7824
G1 X208.72 Y206.33 E54.81241
G1 X208.219 Y207.082 E54.84246
G1 X207.653 Y207.786 E54.8725
G1 X207.028 Y208.437 E54.90252
G1 X206.347 Y209.031 E54.93258
G1 X205.616 Y209.562 E54.96263
G1 X204.842 Y210.026 E54.99264
G1 X204.029 Y210.42 E55.02269
G1 X203.185 Y210.74 E55.05271
G1 X202.315 Y210.985 E55.08277
G1 X201.428 Y211.151 E55.11279
G1 X200.277 Y211.249 E55.15121
G1 X199.671 Y211.262 E55.17137
G1 X185.176 Y211.263 E55.65347
G1 X184.947 Y211.27 E55.66109
G1 X184.122 Y211.266 E55.68853
G1 X181.619 Y211.324 E55.77181
G1 X179.031 Y211.457 E55.858
G1 X176.56 Y211.655 E55.94045
G1 X174.001 Y211.933 E56.02606
G1 X171.475 Y212.279 E56.11086
G1 X168.98 Y212.694 E56.19498
G1 X166.486 Y213.181 E56.2795
G1 X163.995 Y213.74 E56.36441
G1 X161.573 Y214.357 E56.44754
G1 X159.133 Y215.053 E56.53193
G1 X156.172 Y215.997 E56.6353
G1 X155.3 Y216.233 E56.66535
G1 X154.61 Y216.362 E56.68869
G1 X153.309 Y216.559 E56.73246
G1 X147.269 Y217.358 E56.9351
G1 X147.137 Y217.37 E56.93951
G1 X135.065 Y218.953 E57.34446
G1 X134.198 Y219.055 E57.3735
G1 X133.298 Y219.12 E57.40351
G1 X132.395 Y219.105 E57.43355
G1 X131.87 Y219.059 E57.45108
G1 X130.817 Y218.938 E57.48633
G1 X118.267 Y217.291 E57.90732
G1 X115.654 Y216.986 E57.99482
G1 X113.153 Y216.765 E58.07833
G1 X110.592 Y216.611 E58.16366
G1 X108.058 Y216.532 E58.24798
G1 X105.525 Y216.523 E58.33223
G1 X102.957 Y216.588 E58.41767
G1 X100.448 Y216.722 E58.50124
G1 X97.943 Y216.926 E58.58483
G1 X94.695 Y217.296 E58.69356
G1 X82.012 Y218.96 E59.11901
G1 X81.204 Y219.055 E59.14607
G1 X80.303 Y219.12 E59.17612
G1 X79.4 Y219.105 E59.20616
G1 X78.883 Y219.06 E59.22342
G1 X77.808 Y218.937 E59.25941
G1 X59.207 Y216.494 E59.88339
G1 X58.55 Y216.399 E59.90547
G1 X57.663 Y216.23 E59.9355
G1 X56.794 Y215.984 E59.96554
G1 X55.951 Y215.661 E59.99557
