;START_OF_HEADER
;HEADER_VERSION:0.1
;FLAVOR:Griffin
;GENERATOR.NAME:Cura_SteamEngine
;GENERATOR.VERSION:5.2.1
;GENERATOR.BUILD_DATE:2022-10-19
;TARGET_MACHINE.NAME:Ultimaker S5
;EXTRUDER_TRAIN.0.INITIAL_TEMPERATURE:210
;EXTRUDER_TRAIN.0.MATERIAL.VOLUME_USED:16375
;EXTRUDER_TRAIN.0.MATERIAL.GUID:506c9f0d-e3aa-4bd4-b2d2-23e2425b1aa9
;EXTRUDER_TRAIN.0.NOZZLE.DIAMETER:0.4
;EXTRUDER_TRAIN.0.NOZZLE.NAME:AA 0.4
;EXTRUDER_TRAIN.1.INITIAL_TEMPERATURE:100
;EXTRUDER_TRAIN.1.MATERIAL.VOLUME_USED:270
;EXTRUDER_TRAIN.1.MATERIAL.GUID:506c9f0d-e3aa-4bd4-b2d2-23e2425b1aa9
;EXTRUDER_TRAIN.1.NOZZLE.DIAMETER:0.4
;EXTRUDER_TRAIN.1.NOZZLE.NAME:AA 0.4
;BUILD_PLATE.INITIAL_TEMPERATURE:60
;BUILD_VOLUME.TEMPERATURE:28
;PRINT.TIME:4536
;PRINT.GROUPS:1
;PRINT.SIZE.MIN.X:69.17
;PRINT.SIZE.MIN.Y:37.215
;PRINT.SIZE.MIN.Z:0.27
;PRINT.SIZE.MAX.X:330
;PRINT.SIZE.MAX.Y:237
;PRINT.SIZE.MAX.Z:70.17
;SLICE_UUID:461752bb-2c54-4ff0-ac9f-079dec7892a8
;END_OF_HEADER
;Generated with Cura_SteamEngine 5.2.1
T0
M82 ;absolute extrusion mode

G92 E0
M109 S210
G280 S1
G0 Z20.001
G1 F2700 E-6.5
;LAYER_COUNT:234
;LAYER:0
M107
M204 S1000
M205 X30 Y30
G1 F600 Z2.27
G0 F3600 X238.17 Y192.205 Z2.27
;TYPE:SKIRT
G1 F600 Z0.27
G1 F2700 E0
G1 F1200 X237.698 Y193.103 E0.02061
G1 X236.971 Y193.811 E0.04123
G1 X236.534 Y194.071 E0.05156
G1 X236.062 Y194.259 E0.06188
G1 X235.087 Y194.413 E0.08193
G1 X220.224 Y194.415 E0.38388
G1 X220.132 Y194.422 E0.38575
G1 X218.899 Y194.419 E0.4108
G1 X216.145 Y194.49 E0.46677
G1 X213.439 Y194.636 E0.52182
G1 X210.69 Y194.863 E0.57786
G1 X207.999 Y195.162 E0.63286
G1 X205.265 Y195.544 E0.68895
G1 X202.561 Y196 E0.74465
G1 X199.877 Y196.532 E0.80024
G1 X197.229 Y197.134 E0.85541
G1 X194.573 Y197.819 E0.91113
G1 X191.937 Y198.577 E0.96685
G1 X188.859 Y199.565 E1.03253
G1 X187.404 Y199.786 E1.06243
G1 X180.991 Y200.62 E1.19381
G1 X176.433 Y201.226 E1.28722
G1 X175.116 Y201.393 E1.31419
G1 X174.043 Y201.541 E1.33619
G1 X169.102 Y202.188 E1.43743
G1 X168.401 Y202.269 E1.45176
G1 X167.66 Y202.27 E1.46682
G1 X166.737 Y202.164 E1.48569
G1 X154.089 Y200.504 E1.74484
G1 X151.313 Y200.18 E1.80162
G1 X148.607 Y199.941 E1.85681
G1 X145.86 Y199.776 E1.91272
G1 X143.146 Y199.691 E1.96788
G1 X140.394 Y199.682 E2.02379
G1 X137.645 Y199.751 E2.07965
G1 X134.929 Y199.896 E2.13491
G1 X132.205 Y200.119 E2.19043
G1 X128.822 Y200.504 E2.2596
G1 X115.983 Y202.188 E2.52267
G1 X115.295 Y202.268 E2.53674
G1 X114.555 Y202.269 E2.55177
G1 X113.629 Y202.163 E2.57071
G1 X95.099 Y199.732 E2.95038
G1 X94.093 Y199.585 E2.97103
G1 X93.465 Y199.334 E2.98477
G1 X92.637 Y198.748 E3.00538
G1 X92.031 Y197.934 E3.02599
G1 X91.831 Y197.466 E3.03633
G1 X91.664 Y196.807 E3.05014
G1 X91.65 Y195.578 E3.07511
G1 X91.665 Y194.537 E3.09626
G1 X91.665 Y191.782 E3.15223
G1 X91.652 Y191.166 E3.16475
G1 X91.65 Y41 E6.21543
G1 X91.708 Y40.389 E6.2279
G1 X91.834 Y39.896 E6.23824
G1 X92.308 Y38.999 E6.25885
G1 X93.037 Y38.293 E6.27947
G1 X93.475 Y38.034 E6.2898
G1 X93.948 Y37.847 E6.30014
G1 X94.915 Y37.696 E6.32002
G1 X109.204 Y37.695 E6.61031
G1 X110.249 Y37.711 E6.63154
G1 X110.908 Y37.881 E6.64536
G1 X111.436 Y38.109 E6.65705
G1 X114.274 Y39.919 E6.72543
G1 X116.632 Y41.325 E6.7812
G1 X118.985 Y42.64 E6.83597
G1 X121.442 Y43.923 E6.89228
G1 X123.876 Y45.107 E6.94726
G1 X126.403 Y46.249 E7.0036
G1 X128.904 Y47.295 E7.05867
G1 X131.495 Y48.295 E7.11509
G1 X134.046 Y49.195 E7.17005
G1 X136.65 Y50.034 E7.22563
G1 X139.295 Y50.803 E7.28159
G1 X141.906 Y51.483 E7.3364
G1 X144.587 Y52.102 E7.3923
G1 X147.312 Y52.649 E7.44876
G1 X149.955 Y53.103 E7.50324
G1 X152.705 Y53.495 E7.55968
G1 X155.401 Y53.802 E7.6148
G1 X158.113 Y54.034 E7.6701
G1 X160.857 Y54.19 E7.72593
G1 X163.608 Y54.269 E7.78184
G1 X166.323 Y54.269 E7.837
G1 X169.074 Y54.192 E7.89291
G1 X171.819 Y54.038 E7.94876
G1 X174.531 Y53.808 E8.00405
G1 X177.222 Y53.503 E8.05907
G1 X179.954 Y53.115 E8.11513
G1 X182.68 Y52.648 E8.17132
G1 X185.316 Y52.122 E8.22593
G1 X187.986 Y51.508 E8.28158
G1 X190.669 Y50.81 E8.3379
G1 X193.262 Y50.057 E8.39276
G1 X195.888 Y49.213 E8.44879
G1 X198.491 Y48.296 E8.50486
G1 X201 Y47.332 E8.55946
G1 X203.519 Y46.28 E8.61492
G1 X206.072 Y45.126 E8.67184
G1 X208.497 Y43.949 E8.7266
G1 X210.924 Y42.684 E8.7822
G1 X213.305 Y41.355 E8.8376
G1 X215.678 Y39.942 E8.89371
G1 X218.695 Y38.028 E8.96629
G1 X219.339 Y37.807 E8.98012
G1 X220.126 Y37.695 E8.99627
G1 X234.445 Y37.695 E9.28717
G1 X235.481 Y37.708 E9.30822
G1 X236.142 Y37.876 E9.32207
G1 X237.04 Y38.348 E9.34268
G1 X237.748 Y39.075 E9.3633
G1 X238.008 Y39.512 E9.37363
G1 X238.196 Y39.985 E9.38397
G1 X238.349 Y40.958 E9.40398
G1 X238.35 Y190.478 E12.44154
G1 X238.337 Y191.547 E12.46326
G1 X238.17 Y192.205 E12.47705
G1 F2700 E5.97705
;MESH:Car_Model.obj
G0 F3600 X238.138 Y194.202
G0 X194.062 Y194.615
G0 X190.605 Y194.615
G0 X188.921 Y195.028
G1 F2700 E12.47705
G0 F3600 X188.274 Y195.18
;TYPE:WALL-OUTER
G1 F980 X187.739 Y195.199 E12.4901
G1 F1200 X182.149 Y195.932 E12.60463
G1 X182.281 Y196.949 E12.62547
G1 X187.962 Y196.203 E12.74187
G1 F980 X188.634 Y195.743 E12.76172
G1 F972.4 X189.005 Y195.65 E12.77111
G1 F1189.1 X190.782 Y194.72 E12.8122
G1 F1200 X190.782 Y192.103 E12.86536
G1 X190.782 Y191.474 E12.87814
G1 X189.731 Y191.474 E12.89949
G1 F1189.1 X188.296 Y195.006 E12.97759
G1 F972.4 X188.274 Y195.18 E12.98189
G0 F3600 X188.074 Y195.187
G0 X188.73 Y195.241
;TYPE:WALL-INNER
G1 F1194.5 X190.302 Y194.43 E13.01798
G1 F1200 X190.302 Y192.103 E13.06525
G1 X190.302 Y191.954 E13.06828
G1 X190.053 Y191.954 E13.07334
G1 X189.261 Y193.9 E13.11602
G1 F1194.5 X188.73 Y195.241 E13.14544
G0 F3600 X188.921 Y195.028
G0 X187.805 Y195.707
G1 F1042.6 X182.723 Y196.374 E13.26367
G0 F3600 X188.227 Y195.334
G0 X190.096 Y194.305
G0 X189.809 Y194.021
;TYPE:SKIN
G1 F713.7 X189.715 Y194.021 E13.26654
G1 X189.667 Y194.103 E13.26945
G1 X189.715 Y194.185 E13.27235
G1 X189.809 Y194.185 E13.27522
G1 X189.857 Y194.103 E13.27813
G1 F2700 E6.77813
G0 F3600 X190.162 Y194.103
G0 X188.227 Y195.334
G0 X182.344 Y196.083
G0 X178.92 Y196.531
G0 X176.84 Y196.809
G0 X168.006 Y197.789
;TYPE:WALL-OUTER
G1 F2700 E13.27813
G1 F1200 X148.237 Y195.195 E13.68319
G1 X148.237 Y196.225 E13.70411
G1 X168.006 Y198.821 E14.10917
G1 X168.072 Y198.812 E14.11053
G1 X173.699 Y198.077 E14.22581
G1 X173.567 Y197.058 E14.24669
G1 X168.006 Y197.789 E14.36063
G0 F3600 X167.808 Y197.763
G0 X167.774 Y198.02
G0 X173.124 Y197.634
;TYPE:WALL-INNER
G1 F1032 X168.006 Y198.301 E14.48078
G1 F1034.1 X158.377 Y197.039 E14.70643
G1 F1046.9 X148.747 Y195.777 E14.92963
G1 F2700 E8.42963
G0 F3600 X144.956 Y195.391
G0 X140.956 Y194.615
G0 X137.499 Y194.615
G0 X135.815 Y195.028
G1 F2700 E14.92963
G0 F3600 X135.168 Y195.18
;TYPE:WALL-OUTER
G1 F980 X134.633 Y195.199 E14.94269
G1 F1200 X114.9 Y197.789 E15.34701
G1 X95.131 Y195.195 E15.75207
G1 X95.131 Y196.225 E15.77299
G1 X114.9 Y198.821 E16.17805
G1 X134.856 Y196.203 E16.58694
G1 F980 X135.528 Y195.743 E16.60679
G1 F972.4 X135.899 Y195.65 E16.61618
G1 F1189.1 X137.676 Y194.72 E16.65727
G1 F1200 X137.676 Y192.103 E16.71043
G1 X137.676 Y191.474 E16.72321
G1 X136.625 Y191.474 E16.74456
G1 F1189.1 X135.19 Y195.006 E16.82266
G1 F972.4 X135.168 Y195.18 E16.82696
G0 F3600 X134.968 Y195.187
G0 X135.624 Y195.241
;TYPE:WALL-INNER
G1 F1194.5 X137.196 Y194.43 E16.86305
G1 F1200 X137.196 Y192.103 E16.91032
G1 X137.196 Y191.954 E16.91335
G1 X136.947 Y191.954 E16.91841
G1 X136.155 Y193.9 E16.96109
G1 F1194.5 X135.624 Y195.241 E16.99051
G0 F3600 X135.815 Y195.028
G0 X134.699 Y195.707
G1 F1036.2 X114.9 Y198.301 E17.45365
G1 F1034.1 X105.271 Y197.039 E17.6793
G1 F1046.9 X95.641 Y195.777 E17.9025
G0 F3600 X114.932 Y197.985
G0 X135.121 Y195.334
G0 X136.99 Y194.305
G0 X136.703 Y194.021
;TYPE:SKIN
G1 F713.7 X136.609 Y194.021 E17.90538
G1 X136.561 Y194.103 E17.90828
G1 X136.609 Y194.185 E17.91118
G1 X136.703 Y194.185 E17.91405
G1 X136.751 Y194.103 E17.91696
G1 F2700 E11.41696
G1 F600 Z2.27
G0 F3600 X202.981 Y128.818 Z2.27
;TYPE:WALL-OUTER
G1 F600 Z0.27
G1 F2700 E17.91696
G1 F1200 X203.046 Y128.81 E17.91829
G1 X213.188 Y128.81 E18.12433
G1 X213.363 Y129.006 E18.12967
G1 X213.363 Y149.194 E18.53979
G1 X213.318 Y149.295 E18.54204
G1 X213.168 Y149.387 E18.54561
G1 X202.999 Y149.39 E18.7522
G1 X202.806 Y149.196 E18.75776
G1 X202.806 Y129.003 E19.16799
G1 X202.981 Y128.818 E19.17316
G0 F3600 X203.046 Y128.81
G0 X203.181 Y128.81
G1 F2700 E12.67316
G0 F3600 X203.181 Y128.19
G0 X213.125 Y128.109
G0 X213.951 Y125.061
G0 X220.733 Y124.725
G1 F2700 E19.17316
G0 F3600 X220.293 Y124.287
G1 F1200 X220.167 Y124.34 E19.17594
G1 X198.336 Y124.341 E19.61945
G1 X198.337 Y153.859 E20.21912
G1 X220.167 Y153.861 E20.6626
G1 X220.277 Y153.902 E20.66499
G1 X220.38 Y154.082 E20.6692
G1 X220.38 Y190.934 E21.41786
G1 X234.87 Y190.934 E21.71223
G1 X234.87 Y48.42 E24.60746
G1 X234.87 Y41.175 E24.75465
G1 X220.38 Y41.175 E25.04902
G1 X220.377 Y124.143 E26.73454
G1 X220.293 Y124.287 E26.73793
G0 F3600 X220.167 Y124.34
G0 X220.103 Y124.34
G0 X220.597 Y124.659
;TYPE:WALL-INNER
G1 F1200 X220.219 Y124.817 E26.74625
G1 X198.816 Y124.821 E27.18106
G1 X198.817 Y153.379 E27.76123
G1 X220.219 Y153.384 E28.19602
G1 X220.401 Y153.428 E28.19983
G1 X220.758 Y153.729 E28.20931
G1 X220.859 Y154.046 E28.21607
G1 X220.86 Y190.454 E28.95571
G1 X234.39 Y190.454 E29.23058
G1 X234.39 Y48.42 E32.11606
G1 X234.39 Y41.655 E32.25349
G1 X220.86 Y41.655 E32.52836
G1 X220.857 Y124.177 E34.20483
G1 X220.8 Y124.392 E34.20935
G1 X220.597 Y124.659 E34.21616
G1 F2700 E27.71616
G0 F3600 X220.698 Y124.757
G0 X213.951 Y125.061
G0 X213.432 Y128.159
G0 X213.962 Y149.466
G1 F2700 E34.21616
G0 F3600 X213.702 Y149.583
G1 F1200 X213.558 Y149.726 E34.22028
G1 X213.212 Y149.87 E34.2279
G1 X202.91 Y149.87 E34.43719
G1 X202.676 Y149.769 E34.44236
G1 X202.427 Y149.52 E34.44952
G1 X202.326 Y149.284 E34.45473
G1 X202.326 Y128.914 E34.86856
G1 X202.427 Y128.68 E34.87374
G1 X202.676 Y128.431 E34.88089
G1 X202.851 Y128.356 E34.88476
G1 X203.046 Y128.33 E34.88875
G1 X213.308 Y128.33 E35.09723
G1 X213.702 Y128.617 E35.10713
G1 X213.846 Y128.957 E35.11463
G1 X213.846 Y149.243 E35.52675
G1 X213.702 Y149.583 E35.53425
G1 F2700 E29.03425
G1 F600 Z2.27
G0 F3600 X226.745 Y158.844 Z2.27
;TYPE:WALL-OUTER
G1 F600 Z0.27
G1 F2700 E35.53425
G1 F1200 X226.233 Y158.546 E35.54629
G1 X225.898 Y157.976 E35.55972
G1 X225.893 Y157.316 E35.57313
G1 X226.232 Y156.729 E35.5869
G1 X226.491 Y156.533 E35.5935
G1 X227.081 Y156.37 E35.60593
G1 X227.782 Y156.549 E35.62063
G1 X228.229 Y157.006 E35.63362
G1 X228.392 Y157.587 E35.64588
G1 X228.236 Y158.256 E35.65983
G1 X227.972 Y158.577 E35.66828
G1 X227.459 Y158.864 E35.68022
G1 X226.745 Y158.844 E35.69473
G0 F3600 X226.573 Y158.744
G0 X226.24 Y159.318
G0 X225.348 Y158.234
G0 X225.287 Y157.268
G0 X225.706 Y156.327
G0 X225.827 Y156.434
;TYPE:WALL-INNER
G1 F1200 X226.251 Y156.117 E35.70548
G1 X226.983 Y155.9 E35.72099
G1 X227.227 Y155.892 E35.72595
G1 X228.009 Y156.11 E35.74245
G1 X228.628 Y156.714 E35.76002
G1 X228.865 Y157.504 E35.77677
G1 X228.865 Y157.754 E35.78185
G1 X228.666 Y158.469 E35.79693
G1 X228.322 Y158.915 E35.80837
G1 X227.668 Y159.299 E35.82378
G1 X226.789 Y159.352 E35.84167
G1 X226.508 Y159.262 E35.84766
G1 X225.844 Y158.857 E35.86346
G1 X225.406 Y158.052 E35.88208
G1 X225.429 Y157.193 E35.89954
G1 X225.827 Y156.434 E35.91695
G1 F2700 E29.41695
G1 F600 Z2.27
G0 F3600 X227.472 Y73.25 Z2.27
;TYPE:WALL-OUTER
G1 F600 Z0.27
G1 F2700 E35.91695
G1 F1200 X227.998 Y73.55 E35.92925
G1 X228.347 Y74.125 E35.94292
G1 X228.393 Y74.512 E35.95083
G1 X228.211 Y75.131 E35.96394
G1 X227.972 Y75.411 E35.97142
G1 X227.459 Y75.699 E35.98337
G1 X226.778 Y75.695 E35.99721
G1 X226.233 Y75.38 E36.00999
G1 X225.898 Y74.811 E36.02341
G1 X225.898 Y74.132 E36.0372
G1 X226.221 Y73.576 E36.05027
G1 X226.759 Y73.255 E36.06299
G1 X227.472 Y73.25 E36.07748
G0 F3600 X227.645 Y73.349
G0 X227.978 Y72.774
G0 X228.898 Y73.929
G0 X228.866 Y74.595
;TYPE:WALL-INNER
G1 F1200 X228.665 Y75.306 E36.09249
G1 X228.322 Y75.749 E36.10387
G1 X227.668 Y76.134 E36.11929
G1 X227.42 Y76.186 E36.12444
G1 X226.606 Y76.143 E36.141
G1 X225.844 Y75.692 E36.15898
G1 X225.435 Y74.939 E36.17639
G1 X225.405 Y74.061 E36.19424
G1 X225.829 Y73.267 E36.21253
G1 X226.581 Y72.809 E36.23041
G1 X227.407 Y72.754 E36.24723
G1 X227.649 Y72.804 E36.25225
G1 X228.357 Y73.209 E36.26882
G1 X228.794 Y73.925 E36.28586
G1 X228.866 Y74.595 E36.29955
G0 F3600 X229.047 Y74.61
G0 X228.414 Y75.856
G0 X228.583 Y76.053
;TYPE:SKIN
G1 F1200 X227.852 Y76.489 E36.31598
G1 X227.56 Y76.576 E36.32186
G1 X226.749 Y76.584 E36.33751
G1 X226.459 Y76.517 E36.34326
G1 X225.533 Y75.968 E36.36403
G1 X225.006 Y74.974 E36.38575
G1 X225.041 Y73.9 E36.40649
G1 X225.551 Y72.932 E36.4276
G1 X226.407 Y72.448 E36.44658
G1 X226.716 Y72.365 E36.45276
G1 X227.517 Y72.362 E36.46821
G1 X227.794 Y72.426 E36.4737
G1 X228.64 Y72.911 E36.49252
G1 X229.175 Y73.778 E36.51218
G1 X229.288 Y74.539 E36.52703
G1 X229.284 Y74.581 E36.52785
G1 X229.025 Y75.493 E36.54614
G1 X228.583 Y76.053 E36.55991
G1 F2700 E30.05991
G1 F600 Z2.27
G0 F3600 X220.742 Y153.155 Z2.27
G1 F600 Z0.27
G1 F2700 E36.55991
G1 F1200 X221.134 Y153.584 E36.57113
G1 X221.258 Y154.019 E36.57986
G1 X221.26 Y190.054 E37.27532
G1 X233.99 Y190.054 E37.521
G1 X233.99 Y48.42 E40.25449
G1 X233.99 Y42.055 E40.37733
G1 X221.26 Y42.055 E40.62301
G1 X221.259 Y124.28 E42.20993
G1 X221.121 Y124.644 E42.21744
G1 X220.806 Y125.003 E42.22666
G1 X220.267 Y125.214 E42.23783
G1 X199.216 Y125.221 E42.6441
G1 X199.218 Y152.978 E43.1798
G1 X220.163 Y152.981 E43.58404
G1 X220.742 Y153.155 E43.5957
G1 F2700 E37.0957
G0 F3600 X220.602 Y153.374
G0 X221.101 Y155.259
G0 X225.285 Y156.967
G0 X225.287 Y158.006
G0 X225.717 Y158.876
G0 X226.526 Y159.413
G0 X227.493 Y159.474
G0 X228.398 Y158.986
G1 F2700 E43.5957
G0 F3600 X229.026 Y158.653
G1 F1200 X228.586 Y159.216 E43.60949
G1 X227.818 Y159.671 E43.62672
G1 X227.53 Y159.743 E43.63245
G1 X226.749 Y159.749 E43.64752
G1 X226.455 Y159.681 E43.65335
G1 X225.532 Y159.132 E43.67407
G1 X225.044 Y158.211 E43.69419
G1 X224.996 Y157.164 E43.71442
G1 X225.435 Y156.328 E43.73264
G1 X225.656 Y156.063 E43.7393
G1 X226.084 Y155.753 E43.7495
G1 X226.951 Y155.498 E43.76694
G1 X227.287 Y155.495 E43.77343
G1 X228.222 Y155.76 E43.79218
G1 X228.973 Y156.488 E43.81237
G1 X229.252 Y157.4 E43.83078
G1 X229.259 Y157.83 E43.83908
G1 X229.026 Y158.653 E43.85558
G1 F2700 E37.35558
G1 F600 Z2.27
G0 F3600 X202.423 Y150.075 Z2.27
G1 F600 Z0.27
G1 F2700 E43.85558
G1 F1200 X202.072 Y149.701 E43.86548
G1 X201.926 Y149.311 E43.87352
G1 X201.926 Y129.018 E44.26517
G1 X202.121 Y128.426 E44.2772
G1 X202.495 Y128.076 E44.28708
G1 X202.844 Y127.933 E44.29436
G1 X213.163 Y127.933 E44.49351
G1 X213.549 Y128.022 E44.50116
G1 X214.051 Y128.428 E44.51362
G1 X214.242 Y128.888 E44.52323
G1 X214.242 Y149.309 E44.91735
G1 X214.051 Y149.772 E44.92702
G1 X213.549 Y150.179 E44.93949
G1 X213.156 Y150.268 E44.94727
G1 X203.018 Y150.27 E45.14293
G1 X202.423 Y150.075 E45.15501
G1 F2700 E38.65501
G0 F3600 X202.583 Y149.873
G0 X213.126 Y150.091
G0 X213.126 Y153.68
G0 X220.291 Y153.664
G0 X221.072 Y190.242
G1 F2700 E45.15501
G0 F3600 X221.718 Y189.813
G1 F1200 X221.498 Y189.593 E45.16101
G0 F3600 X221.498 Y188.914
G1 F1200 X222.397 Y189.813 E45.18555
G0 F3600 X223.075 Y189.813
G1 F1200 X221.498 Y188.236 E45.22859
G0 F3600 X221.498 Y187.557
G1 F1200 X223.754 Y189.813 E45.29017
G0 F3600 X224.433 Y189.813
G1 F1200 X221.498 Y186.878 E45.37028
G0 F3600 X221.498 Y186.199
G1 F1200 X225.112 Y189.813 E45.46892
G0 F3600 X225.791 Y189.813
G1 F1200 X221.498 Y185.52 E45.58609
G0 F3600 X221.498 Y184.841
G1 F1200 X226.47 Y189.813 E45.72179
G0 F3600 X227.148 Y189.813
G1 F1200 X221.498 Y184.163 E45.876
G0 F3600 X221.498 Y183.484
G1 F1200 X227.827 Y189.813 E46.04875
G0 F3600 X228.506 Y189.813
G1 F1200 X221.498 Y182.805 E46.24002
G0 F3600 X221.498 Y182.126
G1 F1200 X229.185 Y189.813 E46.44983
G0 F3600 X229.864 Y189.813
G1 F1200 X221.498 Y181.447 E46.67817
G0 F3600 X221.498 Y180.769
G1 F1200 X230.542 Y189.813 E46.92501
G0 F3600 X231.221 Y189.813
G1 F1200 X221.498 Y180.09 E47.19039
G0 F3600 X221.498 Y179.411
G1 F1200 X231.9 Y189.813 E47.4743
