;FLAVOR:Marlin
;TIME:17645
;Filament used: 17.0462m
;Layer height: 0.2
;MINX:35.222
;MINY:89.196
;MINZ:0.2
;MAXX:206.618
;MAXY:251.474
;MAXZ:24.2
;Generated with Cura_SteamEngine 5.2.1
M140 S60
M105
M190 S60
M104 S200
M105
M109 S200
M82 ;absolute extrusion mode

G28 ;Home

G92 E0 ;Reset Extruder
G1 Z2.0 F3000 ;Move Z Axis up
G1 X10.1 Y20 Z0.28 F5000.0 ;Move to start position
G1 X10.1 Y200.0 Z0.28 F1500.0 E15 ;Draw the first line
G1 X10.4 Y200.0 Z0.28 F5000.0 ;Move to side a little
G1 X10.4 Y20 Z0.28 F1500.0 E30 ;Draw the second line
G92 E0 ;Reset Extruder
G1 Z2.0 F3000 ;Move Z Axis up

G92 E0
G92 E0
G1 F1500 E-6.5
;LAYER_COUNT:121
;LAYER:0
M107
G0 F6000 X63.859 Y91.339 Z0.2
;TYPE:SKIRT
G1 F1500 E0
G1 F1200 X64.638 Y90.817 E0.03119
G1 X65.459 Y90.363 E0.06239
G1 X66.315 Y89.98 E0.09358
G1 X67.201 Y89.672 E0.12478
G1 X68.109 Y89.44 E0.15595
G1 X69.035 Y89.286 E0.18717
G1 X70.063 Y89.209 E0.22146
G1 X70.692 Y89.196 E0.24239
G1 X183.681 Y89.197 E4.00042
G1 X184.382 Y89.207 E4.02373
G1 X185.318 Y89.26 E4.05491
G1 X186.247 Y89.393 E4.08613
G1 X187.16 Y89.605 E4.1173
G1 X188.053 Y89.893 E4.14851
G1 X188.917 Y90.257 E4.17969
G1 X189.748 Y90.693 E4.21091
G1 X190.538 Y91.198 E4.24209
G1 X191.282 Y91.768 E4.27326
G1 X191.975 Y92.4 E4.30446
G1 X192.612 Y93.089 E4.33567
G1 X193.188 Y93.829 E4.36686
G1 X193.699 Y94.616 E4.39807
G1 X194.298 Y95.787 E4.44181
G1 X195.192 Y97.825 E4.51583
G1 X196.282 Y100.143 E4.60103
G1 X197.418 Y102.392 E4.68483
G1 X198.606 Y104.586 E4.76782
G1 X199.854 Y106.745 E4.85076
G1 X201.204 Y108.935 E4.93633
G1 X202.576 Y111.027 E5.01953
G1 X204.031 Y113.111 E5.10407
G1 X204.536 Y113.813 E5.13283
G1 X205.051 Y114.597 E5.16403
G1 X205.497 Y115.422 E5.19522
G1 X205.871 Y116.282 E5.22642
G1 X206.171 Y117.17 E5.25759
G1 X206.394 Y118.081 E5.28879
G1 X206.539 Y119.008 E5.31999
G1 X206.603 Y119.903 E5.34984
G1 X206.618 Y120.566 E5.37189
G1 X206.617 Y213.871 E8.47523
G1 X206.607 Y214.574 E8.49861
G1 X206.554 Y215.511 E8.52983
G1 X206.421 Y216.439 E8.56101
G1 X206.209 Y217.353 E8.59222
G1 X205.921 Y218.245 E8.62339
G1 X205.557 Y219.11 E8.65461
G1 X205.05 Y220.061 E8.69045
G1 X203.518 Y222.625 E8.78979
G1 X202.291 Y224.824 E8.87355
G1 X201.144 Y227.023 E8.95604
G1 X200.021 Y229.331 E9.04141
G1 X198.998 Y231.596 E9.12407
G1 X198.007 Y233.971 E9.20966
G1 X197.123 Y236.267 E9.29149
G1 X196.289 Y238.628 E9.37478
G1 X195.505 Y241.063 E9.45986
G1 X194.785 Y243.538 E9.54559
G1 X194.484 Y244.427 E9.57681
G1 X194.11 Y245.287 E9.608
G1 X193.663 Y246.111 E9.63918
G1 X193.147 Y246.895 E9.67039
G1 X192.567 Y247.632 E9.70159
G1 X191.926 Y248.316 E9.73277
G1 X191.229 Y248.944 E9.76397
G1 X190.482 Y249.51 E9.79514
G1 X189.688 Y250.01 E9.82635
G1 X188.855 Y250.441 E9.85754
G1 X187.989 Y250.799 E9.88871
G1 X187.094 Y251.083 E9.91994
G1 X186.179 Y251.289 E9.95114
G1 X185.25 Y251.416 E9.98232
G1 X184.564 Y251.459 E10.00518
G1 X183.901 Y251.474 E10.02724
G1 X70.911 Y251.473 E13.7853
G1 X70.213 Y251.463 E13.80852
G1 X69.277 Y251.409 E13.83971
G1 X68.349 Y251.277 E13.87088
G1 X67.435 Y251.065 E13.90209
G1 X66.543 Y250.776 E13.93327
G1 X65.678 Y250.413 E13.96448
G1 X64.848 Y249.977 E13.99566
G1 X64.057 Y249.472 E14.02687
G1 X63.313 Y248.901 E14.05807
G1 X62.62 Y248.269 E14.08926
G1 X61.983 Y247.581 E14.12045
G1 X61.408 Y246.84 E14.15164
G1 X60.897 Y246.054 E14.18282
G1 X60.455 Y245.226 E14.21404
G1 X60.086 Y244.364 E14.24523
G1 X59.791 Y243.474 E14.27641
G1 X59.503 Y242.164 E14.32102
G1 X59.04 Y239.203 E14.4207
G1 X58.573 Y236.709 E14.5051
G1 X58.044 Y234.261 E14.5884
G1 X57.454 Y231.867 E14.6704
G1 X56.767 Y229.381 E14.75619
G1 X56.038 Y227.008 E14.83875
G1 X55.194 Y224.514 E14.92633
G1 X54.698 Y223.125 E14.97538
G1 X54.421 Y222.229 E15.00657
G1 X54.304 Y221.743 E15.0232
G1 X53.687 Y218.874 E15.1208
G1 X53.103 Y216.498 E15.20218
G1 X52.416 Y214.015 E15.28787
G1 X51.683 Y211.629 E15.37089
G1 X50.868 Y209.22 E15.45547
G1 X50.01 Y206.901 E15.53771
G1 X49.053 Y204.524 E15.62294
G1 X48.058 Y202.241 E15.70577
G1 X46.984 Y199.955 E15.78978
G1 X45.855 Y197.72 E15.87306
G1 X44.652 Y195.496 E15.95716
G1 X43.401 Y193.332 E16.0403
G1 X42.067 Y191.169 E16.12482
G1 X40.683 Y189.059 E16.20875
G1 X39.261 Y187.021 E16.2914
G1 X37.486 Y184.631 E16.39042
G1 X36.95 Y183.862 E16.42159
G1 X36.481 Y183.05 E16.45278
G1 X36.083 Y182.2 E16.484
G1 X35.759 Y181.32 E16.51519
G1 X35.51 Y180.416 E16.54638
G1 X35.34 Y179.494 E16.57756
G1 X35.239 Y178.331 E16.61639
G1 X35.222 Y177.634 E16.63958
G1 X35.223 Y162.204 E17.15278
G1 X35.234 Y161.527 E17.1753
G1 X35.29 Y160.591 E17.20649
G1 X35.424 Y159.663 E17.23767
G1 X35.638 Y158.75 E17.26886
G1 X35.928 Y157.858 E17.30006
G1 X36.293 Y156.994 E17.33125
G1 X36.731 Y156.164 E17.36247
G1 X37.382 Y155.174 E17.40188
G1 X37.906 Y154.464 E17.43123
G1 X38.571 Y153.59 E17.46775
G1 X40.028 Y151.557 E17.55094
G1 X41.443 Y149.46 E17.63508
G1 X42.795 Y147.329 E17.71902
G1 X44.073 Y145.181 E17.80215
G1 X45.295 Y142.993 E17.88551
G1 X46.472 Y140.734 E17.97023
G1 X47.568 Y138.479 E18.05362
G1 X48.6 Y136.192 E18.13707
G1 X49.563 Y133.885 E18.22022
G1 X50.493 Y131.47 E18.30629
G1 X51.315 Y129.135 E18.38863
G1 X52.079 Y126.756 E18.47173
G1 X52.786 Y124.322 E18.55603
G1 X53.415 Y121.9 E18.63926
G1 X54 Y119.359 E18.72599
G1 X54.294 Y117.967 E18.77331
G1 X54.527 Y117.058 E18.80452
G1 X54.736 Y116.434 E18.8264
G1 X55.063 Y115.547 E18.85785
G1 X55.911 Y113.145 E18.94257
G1 X56.692 Y110.713 E19.02753
G1 X57.388 Y108.318 E19.11048
G1 X58.021 Y105.884 E19.19413
G1 X58.587 Y103.424 E19.27809
G1 X59.087 Y100.929 E19.36272
G1 X59.529 Y98.347 E19.44985
G1 X59.727 Y97.43 E19.48105
G1 X60.002 Y96.534 E19.51222
G1 X60.352 Y95.664 E19.54341
G1 X60.775 Y94.827 E19.57461
G1 X61.268 Y94.029 E19.6058
G1 X61.828 Y93.276 E19.63702
G1 X62.449 Y92.573 E19.66821
G1 X63.128 Y91.926 E19.69941
G1 X63.859 Y91.339 E19.73059
G0 F6000 X64.219 Y91.573
G1 F1200 X64.992 Y91.071 E19.76125
G1 X65.804 Y90.639 E19.79184
G1 X66.652 Y90.279 E19.82248
G1 X67.527 Y89.994 E19.85309
G1 X68.424 Y89.785 E19.88372
G1 X69.335 Y89.656 E19.91432
G1 X70.074 Y89.609 E19.93895
G1 X70.692 Y89.596 E19.95951
G1 X183.675 Y89.597 E23.71734
G1 X184.376 Y89.607 E23.74066
G1 X185.295 Y89.66 E23.77127
G1 X186.206 Y89.793 E23.8019
G1 X187.102 Y90.004 E23.83251
G1 X187.977 Y90.292 E23.86315
G1 X188.823 Y90.655 E23.89377
G1 X189.634 Y91.09 E23.92438
G1 X190.405 Y91.594 E23.95501
G1 X191.129 Y92.163 E23.98564
G1 X191.801 Y92.792 E24.01626
G1 X192.416 Y93.477 E24.04687
G1 X192.969 Y94.213 E24.07749
G1 X193.456 Y94.995 E24.10813
G1 X193.932 Y95.948 E24.14357
G1 X194.836 Y98.008 E24.21839
G1 X195.921 Y100.315 E24.30318
G1 X197.06 Y102.57 E24.38721
G1 X198.251 Y104.77 E24.47041
G1 X199.526 Y106.976 E24.55516
G1 X200.846 Y109.117 E24.63882
G1 X202.258 Y111.269 E24.72442
G1 X203.722 Y113.368 E24.80954
G1 X204.211 Y114.047 E24.83737
G1 X204.716 Y114.816 E24.86797
G1 X205.152 Y115.627 E24.89859
G1 X205.516 Y116.473 E24.92923
G1 X205.806 Y117.347 E24.95985
G1 X206.018 Y118.243 E24.99048
G1 X206.152 Y119.153 E25.02107
G1 X206.203 Y119.915 E25.04647
G1 X206.218 Y120.566 E25.06813
G1 X206.217 Y213.866 E28.1713
G1 X206.207 Y214.569 E28.19469
G1 X206.154 Y215.488 E28.2253
G1 X206.021 Y216.399 E28.25592
G1 X205.81 Y217.295 E28.28654
G1 X205.522 Y218.169 E28.31715
G1 X205.159 Y219.016 E28.3478
G1 X204.707 Y219.856 E28.37952
G1 X203.168 Y222.431 E28.4793
G1 X201.945 Y224.623 E28.56278
G1 X200.773 Y226.87 E28.64708
G1 X199.669 Y229.14 E28.73103
G1 X198.623 Y231.456 E28.81555
G1 X197.641 Y233.809 E28.90036
G1 X196.748 Y236.127 E28.98298
G1 X195.903 Y238.52 E29.06739
G1 X195.13 Y240.924 E29.15137
G1 X194.401 Y243.427 E29.23808
G1 X194.105 Y244.298 E29.26868
G1 X193.735 Y245.141 E29.2993
G1 X193.293 Y245.949 E29.32993
G1 X192.783 Y246.716 E29.36057
G1 X192.208 Y247.435 E29.39119
G1 X191.573 Y248.101 E29.42179
G1 X190.883 Y248.71 E29.4524
G1 X190.142 Y249.257 E29.48304
G1 X189.357 Y249.738 E29.51366
G1 X188.533 Y250.148 E29.54427
G1 X187.676 Y250.486 E29.57491
G1 X186.794 Y250.748 E29.60551
G1 X185.892 Y250.932 E29.63613
G1 X184.552 Y251.059 E29.6809
G1 X183.901 Y251.074 E29.70256
G1 X70.917 Y251.073 E33.46042
G1 X70.219 Y251.063 E33.48364
G1 X69.3 Y251.01 E33.51426
G1 X68.389 Y250.877 E33.54488
G1 X67.493 Y250.666 E33.57549
G1 X66.619 Y250.378 E33.6061
G1 X65.772 Y250.015 E33.63675
G1 X64.961 Y249.58 E33.66736
G1 X64.191 Y249.076 E33.69797
G1 X63.467 Y248.507 E33.7286
G1 X62.795 Y247.877 E33.75923
G1 X62.18 Y247.192 E33.78985
G1 X61.627 Y246.456 E33.82047
G1 X61.14 Y245.675 E33.85108
G1 X60.723 Y244.854 E33.88171
G1 X60.378 Y244 E33.91234
G1 X60.109 Y243.12 E33.94295
G1 X59.898 Y242.102 E33.97753
G1 X59.428 Y239.1 E34.07859
G1 X58.971 Y236.656 E34.16129
G1 X58.437 Y234.186 E34.24534
G1 X57.836 Y231.745 E34.32895
G1 X57.154 Y229.278 E34.41408
G1 X56.41 Y226.858 E34.49829
G1 X55.589 Y224.432 E34.58347
G1 X55.074 Y222.99 E34.6344
G1 X54.803 Y222.11 E34.66503
G1 X54.695 Y221.658 E34.68048
G1 X54.081 Y218.807 E34.77748
G1 X53.482 Y216.369 E34.86098
G1 X52.808 Y213.929 E34.94518
G1 X52.058 Y211.489 E35.03008
G1 X51.246 Y209.089 E35.11435
G1 X50.385 Y206.761 E35.1969
G1 X49.427 Y204.381 E35.28223
G1 X48.415 Y202.06 E35.36645
G1 X47.338 Y199.769 E35.45065
G1 X46.214 Y197.543 E35.53359
G1 X45.007 Y195.312 E35.61796
G1 X43.73 Y193.102 E35.70285
G1 X42.409 Y190.961 E35.78652
G1 X41.019 Y188.841 E35.87084
G1 X39.578 Y186.776 E35.95459
G1 X38.053 Y184.715 E36.03986
G1 X37.804 Y184.389 E36.05351
G1 X37.278 Y183.633 E36.08414
G1 X36.82 Y182.835 E36.11474
G1 X36.432 Y181.999 E36.1454
G1 X36.119 Y181.134 E36.17599
G1 X35.882 Y180.244 E36.20663
G1 X35.723 Y179.337 E36.23725
G1 X35.639 Y178.317 E36.27129
G1 X35.622 Y177.634 E36.29402
G1 X35.623 Y162.211 E36.80699
G1 X35.634 Y161.534 E36.82951
G1 X35.689 Y160.615 E36.86013
G1 X35.824 Y159.704 E36.89076
G1 X36.037 Y158.808 E36.92139
G1 X36.327 Y157.935 E36.95199
G1 X36.691 Y157.089 E36.98262
G1 X37.128 Y156.279 E37.01323
G1 X37.704 Y155.412 E37.04785
G1 X38.324 Y154.574 E37.08252
G1 X38.886 Y153.836 E37.11338
G1 X40.352 Y151.791 E37.19706
G1 X41.785 Y149.668 E37.28226
G1 X43.118 Y147.567 E37.36501
G1 X44.432 Y145.359 E37.45047
G1 X45.665 Y143.149 E37.53464
G1 X46.829 Y140.915 E37.61843
G1 X47.914 Y138.682 E37.701
G1 X48.975 Y136.331 E37.78679
G1 X49.947 Y134.004 E37.87067
G1 X50.856 Y131.641 E37.95487
G1 X51.686 Y129.285 E38.03796
G1 X52.47 Y126.842 E38.12329
G1 X53.172 Y124.43 E38.20684
G1 X53.806 Y121.985 E38.29085
G1 X54.384 Y119.475 E38.37652
G1 X54.685 Y118.05 E38.42496
G1 X54.915 Y117.158 E38.4556
G1 X55.111 Y116.573 E38.47612
G1 X55.435 Y115.694 E38.50728
G1 X56.293 Y113.264 E38.59299
G1 X57.074 Y110.832 E38.67795
G1 X57.771 Y108.434 E38.76101
G1 X58.414 Y105.961 E38.846
G1 X58.976 Y103.52 E38.92931
G1 X59.479 Y101.004 E39.01465
G1 X59.923 Y98.415 E39.10201
G1 X60.118 Y97.515 E39.13264
G1 X60.39 Y96.635 E39.16328
G1 X60.738 Y95.783 E39.19389
G1 X61.158 Y94.964 E39.2245
G1 X61.647 Y94.184 E39.25512
G1 X62.203 Y93.45 E39.28575
G1 X62.82 Y92.766 E39.31639
G1 X63.493 Y92.139 E39.34698
G1 X64.219 Y91.573 E39.3776
G0 F6000 X64.578 Y91.81
G1 F1200 X65.344 Y91.33 E39.40766
G1 X66.148 Y90.92 E39.43768
G1 X66.986 Y90.583 E39.46772
G1 X67.85 Y90.321 E39.49775
G1 X68.735 Y90.137 E39.52781
G1 X69.632 Y90.032 E39.55785
G1 X70.085 Y90.009 E39.57294
G1 X70.692 Y89.996 E39.59313
G1 X183.669 Y89.997 E43.35076
G1 X184.37 Y90.007 E43.37408
G1 X185.272 Y90.06 E43.40413
G1 X186.165 Y90.192 E43.43416
G1 X187.044 Y90.403 E43.46422
G1 X187.9 Y90.691 E43.49426
G1 X188.727 Y91.053 E43.52429
G1 X189.519 Y91.487 E43.55433
G1 X190.269 Y91.99 E43.58436
G1 X190.972 Y92.557 E43.6144
G1 X191.622 Y93.183 E43.64442
G1 X192.215 Y93.865 E43.67447
G1 X192.744 Y94.597 E43.70451
G1 X193.207 Y95.372 E43.73454
G1 X193.566 Y96.108 E43.76178
G1 X194.479 Y98.19 E43.83739
G1 X195.56 Y100.487 E43.92183
G1 X196.694 Y102.733 E44.00551
G1 X197.911 Y104.981 E44.09053
G1 X199.182 Y107.18 E44.17501
G1 X200.53 Y109.367 E44.26046
G1 X201.911 Y111.472 E44.34419
G1 X203.363 Y113.552 E44.42856
G1 X203.887 Y114.28 E44.45839
G1 X204.381 Y115.036 E44.48843
G1 X204.807 Y115.832 E44.51846
G1 X205.161 Y116.663 E44.5485
G1 X205.44 Y117.522 E44.57854
G1 X205.641 Y118.403 E44.6086
G1 X205.764 Y119.297 E44.63861
G1 X205.803 Y119.927 E44.65961
G1 X205.818 Y120.566 E44.68086
G1 X205.817 Y213.86 E47.78384
G1 X205.807 Y214.563 E47.80722
G1 X205.754 Y215.465 E47.83727
G1 X205.622 Y216.358 E47.8673
G1 X205.411 Y217.236 E47.89733
G1 X205.123 Y218.092 E47.92737
G1 X204.761 Y218.919 E47.95739
G1 X204.364 Y219.651 E47.98509
G1 X202.819 Y222.236 E48.08525
G1 X201.584 Y224.449 E48.16955
G1 X200.416 Y226.689 E48.25357
G1 X199.302 Y228.981 E48.33833
G1 X198.266 Y231.273 E48.42199
G1 X197.275 Y233.648 E48.50758
G1 X196.37 Y235.998 E48.59134
G1 X195.521 Y238.401 E48.6761
G1 X194.748 Y240.805 E48.76009
G1 X194.017 Y243.315 E48.84704
G1 X193.726 Y244.17 E48.87708
G1 X193.361 Y244.996 E48.90712
G1 X192.924 Y245.786 E48.93715
G1 X192.419 Y246.535 E48.96719
G1 X191.85 Y247.236 E48.99722
G1 X191.221 Y247.884 E49.02726
G1 X190.538 Y248.474 E49.05727
G1 X189.804 Y249.002 E49.08735
G1 X189.027 Y249.462 E49.11738
G1 X188.212 Y249.851 E49.14742
G1 X187.366 Y250.168 E49.17747
G1 X186.496 Y250.408 E49.20748
G1 X185.607 Y250.57 E49.23754
G1 X184.54 Y250.659 E49.27315
G1 X183.901 Y250.674 E49.29441
G1 X70.923 Y250.673 E53.05207
G1 X70.225 Y250.663 E53.07529
G1 X69.323 Y250.61 E53.10534
G1 X68.43 Y250.478 E53.13537
G1 X67.552 Y250.267 E53.1654
G1 X66.696 Y249.979 E53.19544
G1 X65.869 Y249.617 E53.22547
G1 X65.077 Y249.182 E53.25552
G1 X64.326 Y248.68 E53.28556
G1 X63.623 Y248.113 E53.3156
G1 X62.973 Y247.486 E53.34564
G1 X62.381 Y246.804 E53.37568
G1 X61.851 Y246.073 E53.40571
G1 X61.389 Y245.297 E53.43575
G1 X60.996 Y244.484 E53.46578
G1 X60.678 Y243.639 E53.49581
G1 X60.435 Y242.769 E53.52585
G1 X60.294 Y242.041 E53.55052
G1 X59.828 Y239.064 E53.65074
G1 X59.362 Y236.57 E53.73513
G1 X58.823 Y234.078 E53.81993
G1 X58.222 Y231.64 E53.90344
G1 X57.541 Y229.176 E53.98847
G1 X56.799 Y226.759 E54.07256
G1 X55.965 Y224.297 E54.15902
G1 X55.451 Y222.856 E54.2099
G1 X55.086 Y221.574 E54.25424
G1 X54.466 Y218.692 E54.35229
G1 X53.871 Y216.272 E54.43517
G1 X53.19 Y213.81 E54.52013
G1 X52.447 Y211.391 E54.6043
G1 X51.629 Y208.971 E54.68926
G1 X50.744 Y206.58 E54.77406
G1 X49.806 Y204.252 E54.85754
G1 X48.779 Y201.896 E54.94302
G1 X47.7 Y199.598 E55.02746
G1 X46.557 Y197.336 E55.11175
G1 X45.348 Y195.1 E55.1963
G1 X44.098 Y192.938 E55.27936
G1 X42.751 Y190.754 E55.3647
G1 X41.337 Y188.598 E55.45046
G1 X39.912 Y186.555 E55.53331
G1 X38.122 Y184.146 E55.63313
G1 X37.607 Y183.404 E55.66317
G1 X37.159 Y182.62 E55.6932
G1 X36.783 Y181.799 E55.72324
G1 X36.48 Y180.948 E55.75328
G1 X36.254 Y180.074 E55.78331
G1 X36.106 Y179.183 E55.81335
G1 X36.039 Y178.304 E55.84267
G1 X36.022 Y177.634 E55.86496
G1 X36.023 Y162.217 E56.37773
G1 X36.034 Y161.54 E56.40025
G1 X36.089 Y160.639 E56.43027
G1 X36.223 Y159.746 E56.46031
G1 X36.436 Y158.868 E56.49036
G1 X36.725 Y158.013 E56.52037
G1 X37.089 Y157.186 E56.55043
G1 X37.525 Y156.395 E56.58047
G1 X38.026 Y155.649 E56.61036
G1 X38.642 Y154.816 E56.64481
G1 X39.213 Y154.066 E56.67617
G1 X40.693 Y152.002 E56.76064
G1 X42.105 Y149.909 E56.84461
G1 X43.472 Y147.755 E56.92947
G1 X44.767 Y145.58 E57.01366
G1 X46.017 Y143.34 E57.09898
G1 X47.186 Y141.096 E57.18313
G1 X48.281 Y138.843 E57.26645
G1 X49.332 Y136.514 E57.35143
G1 X50.318 Y134.154 E57.4365
G1 X51.231 Y131.781 E57.52107
G1 X52.072 Y129.393 E57.60528
G1 X52.849 Y126.972 E57.68984
G1 X53.554 Y124.545 E57.7739
G1 X54.197 Y122.069 E57.85899
G1 X54.78 Y119.536 E57.94544
G1 X55.077 Y118.132 E57.99317
G1 X55.302 Y117.258 E58.02319
G1 X55.487 Y116.711 E58.04239
G1 X55.811 Y115.832 E58.07355
G1 X56.679 Y113.372 E58.16031
G1 X57.453 Y110.961 E58.24453
G1 X58.156 Y108.542 E58.32832
G1 X58.803 Y106.054 E58.41382
G1 X59.366 Y103.609 E58.49727
G1 X59.878 Y101.051 E58.58404
G1 X60.318 Y98.482 E58.67073
G1 X60.509 Y97.6 E58.70074
G1 X60.778 Y96.738 E58.73078
G1 X61.123 Y95.903 E58.76083
G1 X61.539 Y95.102 E58.79085
G1 X62.026 Y94.34 E58.82093
G1 X62.577 Y93.625 E58.85095
G1 X63.19 Y92.962 E58.88098
